X: 5538
T: Burns' Farewell
R: reel
M: 4/4
K: Bminor
|:fe|d2 cd B2 AB|d2 d2 e2 de|f3 g fede|f2 A2 A2 fe|
d2 cd B2 AB|d2 d2 e2 de|f3 g afef|d2 B2 B2:|
|:fg|a2af g2 fe|defg a2 f2|g2 f2 e2 fe|f2 A2 A2 fe|
d2 cd B2 AB|d2 d2 e2 de|f3 g afef|d2 B2 B2:|

